COLOR/status 16/16/media-playlist-repeat.svg

<svg height="16" width="16" xmlns="http://www.w3.org/2000/svg"><g fill="#e95420"><path d="m4.6875.58789062v.78710938 1.375h-.4394531-.00586-.00391c-1.1644521.0138843-2.1145758-.0561779-2.9843707.4238281h-.00195l-.00391.00195c-.467666.2668369-.8234192.6927018-1.0058587 1.1992219-.00032073.0008905-.001633.00106-.001953.00195-.18511861.4940443-.2402345 1.042398-.2402345 1.68555v5.625c0 .647069.05537046 1.195493.2421875 1.691406.19240622.51504.54712799.940941 1.0117187 1.197266.8701779.481376 1.8201834.409948 2.984375.423828h.00391 7.5156248.0039c1.164453-.01389 2.114068.05778 2.984375-.421875l.002-.002.0039-.002c.46763-.266739.823381-.692604 1.005821-1.199125.184333-.494098.242188-1.042278.242188-1.6875v-5.625c0-.6440325-.05549-1.1914398-.240234-1.6855469-.00032-.0008909-.0016-.00106-.002-.00195-.18244-.5065208-.53819-.9323859-1.005859-1.1992188l-.0039-.00195h-.002c-.870092-.4813811-1.820098-.4099529-2.984288-.4238343h-.003907-1.445312v.8945312l-.5664062-.3515624c-.6869902-.4254603-1.4002312-.8419311-2.140625-1.25-.7232294-.3953362-1.4592827-.7701802-2.2050782-1.1210938zm5.625 3.19921878v.9003906h1.4375c.582265.00701 1.062043.021447 1.417969.054687.357394.033377.595104.103783.640625.1289063l.002.00195c.104647.056872.06694.00116.132812.1777343.05507.1475933.119141.492297.119141 1.0117188v5.6249996c0 .518425-.06414.861668-.119141 1.009766-.06705.177911-.02838.123245-.134765.18164-.04552.02512-.283231.09553-.640625.128906-.355926.03324-.835704.04768-1.417969.05469h-7.4941876-.0058594c-.5822749-.007007-1.0614282-.021438-1.4179688-.054686-.3580117-.033385-.5965602-.104519-.640625-.128906h-.0019531-.0019531c-.1019418-.05571-.065211-.0049-.1308594-.179687v-.002c-.0549936-.148022-.1191406-.491287-.1191406-1.009719v-5.625c0-.518431.064147-.8616952.1191406-1.0097656v-.00195c.0655168-.1744456.0284879-.1221125.1328125-.1796906h.00195c.0442368-.02448.2827536-.095524.6406281-.1289063.356404-.0332452.8352297-.0476785 1.4179688-.0546875h.4394531v2.1542969l.7089844-.3242188c.7238584-.331451 1.4589758-.7021215 2.2070313-1.109375h.00195c.7264864-.4005719 1.4411982-.82257 2.1425812-1.265625z" fill="#e95420"/><path d="m4.6875.58789062v.49999998l.7128906.3339844c.7457955.3509136 1.4818487.7257575 2.2050782 1.1210938.7403937.4080688 1.4536347.8245396 2.140625 1.25l.2812502.1738281.285156-.1796875v-.1425782l-.5664062-.3515624c-.6869903-.4254604-1.4002313-.8419312-2.140625-1.25-.7232295-.3953363-1.4592827-.7701802-2.2050782-1.1210938zm-.4492188 2.16210938c-1.164452.0138843-2.11458-.0561779-2.984375.4238281h-.0019531l-.0039062.0019531c-.46766603.2668369-.8234199.6926987-1.0058594 1.1992188 0 0-.00195312.0019531-.00195312.0019531-.18511861.4940443-.24023438 1.0423949-.24023438 1.6855469v.5c0-.643152.05511577-1.1915026.24023438-1.6855469 0 0 .00195312-.0019531.00195312-.0019531.1824395-.5065201.53819337-.9323819 1.0058594-1.1992188l.0039062-.0019531h.0019531c.869795-.480006 1.819923-.4099438 2.984375-.4238281h.0039063.0058594.4394531v-.5h-.4394531-.0058594zm6.0742188 0v.5h1.445312.003907c1.16419.0138814 2.114283-.057553 2.984375.4238281h.001953l.003906.0019531c.467669.2668329.82342.692698 1.005859 1.1992188 0 0 .001954.0019531.001954.0019531.184744.4941071.240234 1.0415144.240234 1.6855469v-.5c0-.6440325-.05549-1.1914398-.240234-1.6855469 0 0-.001954-.0019531-.001954-.0019531-.182439-.5065208-.53819-.9323858-1.005859-1.1992188l-.003906-.0019531h-.001953c-.870092-.4813811-1.820185-.4099467-2.984375-.4238281h-.003907zm-8.375 8.9375v.5c0 .518432.064147.861744.1191406 1.009766v.001953c.0656484.174787.0289176.123977.1308594.179687h.0019531.0019531c.0440649.024387.2826133.095522.640625.128906.3565407.033249.8356939.047681 1.4179688.054688h.0058594 7.4941406c.582265-.00701 1.062043-.021448 1.417969-.054688.357394-.033376.595105-.103786.640625-.128906.106385-.058395.067715-.003729.134765-.18164.055001-.148098.119141-.491341.119141-1.009766v-.5c0 .518425-.06414.861668-.119141 1.009766-.06705.177911-.02838.123245-.134765.18164-.04552.02512-.283231.09553-.640625.128906-.355926.03324-.835704.047678-1.417969.054688h-7.4941406-.0058594c-.5822749-.007007-1.0614281-.021439-1.4179688-.054688-.3580117-.033384-.5965601-.104519-.640625-.128906h-.0019531-.0019531c-.1019418-.05571-.065211-.0049-.1308594-.179687v-.001953c-.0549936-.148022-.1191406-.491334-.1191406-1.009766z" fill="#fff" opacity=".3"/><path d="m10.027344 3.4667969-.277344.1757812c-.701383.443055-1.4160917.8650531-2.1425781 1.265625h-.0019531c-.7480556.4072535-1.4831729.777924-2.2070313 1.109375l-.7089844.3242188v.5l.7089844-.3242188c.7238584-.331451 1.4589757-.7021215 2.2070313-1.109375h.0019531c.7264864-.4005719 1.4411951-.82257 2.1425781-1.265625l.5625-.3554687v-.1425782zm-5.777344.7207031c-.5827391.007009-1.0615648.0214423-1.4179688.0546875-.3578744.0333823-.5963882.1044263-.640625.1289063h-.0019531c-.1043246.0575781-.0672957.0052418-.1328125.1796874v.0019532c-.0549936.1480704-.1191406.4913346-.1191406 1.0097656v.5c0-.518431.064147-.8616952.1191406-1.0097656v-.0019532c.0655168-.1744456.0284879-.1221093.1328125-.1796874h.0019531c.0442368-.02448.2827506-.095524.640625-.1289063.356404-.0332452.8352297-.0476785 1.4179688-.0546875h.4394531v-.5zm6.0625 0v.5h1.4375c.582265.00701 1.062043.0214475 1.417969.0546875.357394.033377.595104.103783.640625.1289063l.001953.0019531c.104647.056872.06694.0011601.132812.1777343.05507.1475933.119141.492297.119141 1.0117188v-.5c0-.5194218-.064071-.8641255-.119141-1.0117188-.065872-.1765742-.028165-.1208623-.132812-.1777343l-.001953-.0019531c-.045521-.0251233-.283231-.0955293-.640625-.1289063-.355926-.03324-.835704-.0476775-1.417969-.0546875zm-10.3125 7v.5c0 .647069.05537046 1.195493.2421875 1.691406.19240622.51504.54712804.940941 1.0117187 1.197266.870178.481376 1.8201834.409948 2.984375.423828h.0039063 7.5156245.003907c1.164453-.01389 2.114068.05778 2.984375-.421875l.001953-.001953.003906-.001953c.46763-.266739.82342-.692698 1.005859-1.199219.184334-.494098.242188-1.042278.242188-1.6875v-.5c0 .645222-.057854 1.193402-.242188 1.6875-.182439.506521-.538229.93248-1.005859 1.199219l-.003906.001953-.001953.001953c-.870307.479655-1.819922.407985-2.984375.421875h-.003907-7.5156245-.0039063c-1.1641916-.01388-2.114197.057548-2.984375-.423828-.46459066-.256325-.81931248-.682226-1.0117187-1.197266-.18681704-.495913-.2421875-1.044337-.2421875-1.691406z" fill="#000" opacity=".2"/></g></svg>

<?xml version="1.0" encoding="UTF-8" standalone="no"?>
<svg
   xmlns:dc="http://purl.org/dc/elements/1.1/"
   xmlns:cc="http://creativecommons.org/ns#"
   xmlns:rdf="http://www.w3.org/1999/02/22-rdf-syntax-ns#"
   xmlns:svg="http://www.w3.org/2000/svg"
   xmlns="http://www.w3.org/2000/svg"
   xmlns:sodipodi="http://sodipodi.sourceforge.net/DTD/sodipodi-0.dtd"
   xmlns:inkscape="http://www.inkscape.org/namespaces/inkscape"
   height="16"
   width="16"
   version="1.1"
   id="svg8"
   sodipodi:docname="media-playlist-repeat.svg"
   inkscape:version="0.92.4 (5da689c313, 2019-01-14)">
  <metadata
     id="metadata14">
    <rdf:RDF>
      <cc:Work
         rdf:about="">
        <dc:format>image/svg+xml</dc:format>
        <dc:type
           rdf:resource="http://purl.org/dc/dcmitype/StillImage" />
        <dc:title></dc:title>
      </cc:Work>
    </rdf:RDF>
  </metadata>
  <defs
     id="defs12">
    <style
       id="current-color-scheme"
       type="text/css">
   .ColorScheme-Text { color:#808080; } .ColorScheme-Highlight { color:#1d99f3; }
  </style>
    <style
       type="text/css"
       id="current-color-scheme-6">
   .ColorScheme-Text { color:#808080; }
  </style>
    <linearGradient
       gradientUnits="userSpaceOnUse"
       gradientTransform="matrix(.36857 0 0 .36857 -.84577 -.84577)"
       y2="3.0816"
       y1="44.98"
       x2="18.379"
       x1="18.379"
       id="linearGradient2484">
      <stop
         offset="0"
         style="stop-color:#791235"
         id="stop2492" />
      <stop
         offset="1"
         style="stop-color:#dd3b27"
         id="stop2494" />
    </linearGradient>
    <radialGradient
       gradientUnits="userSpaceOnUse"
       gradientTransform="matrix(0 .87966 -1.1611 0 12.633 -21.084)"
       r="20.397"
       cy="3.99"
       cx="23.896"
       id="radialGradient2482">
      <stop
         offset="0"
         style="stop-color:#f8b17e"
         id="stop3244" />
      <stop
         offset=".26238"
         style="stop-color:#e35d4f"
         id="stop3246" />
      <stop
         offset=".66094"
         style="stop-color:#c6262e"
         id="stop3248" />
      <stop
         offset="1"
         style="stop-color:#690b54"
         id="stop3250" />
    </radialGradient>
    <linearGradient
       gradientUnits="userSpaceOnUse"
       gradientTransform="matrix(.74324 0 0 .74322 -38.23 10.609)"
       y2="5.4676"
       y1="-12.489"
       x2="63.397"
       x1="63.397"
       id="linearGradient2479">
      <stop
         offset="0"
         style="stop-color:#fff"
         id="stop4875" />
      <stop
         offset="1"
         style="stop-color:#fff;stop-opacity:0"
         id="stop4877" />
    </linearGradient>
    <linearGradient
       gradientUnits="userSpaceOnUse"
       gradientTransform="matrix(.66608 0 0 .76587 -.5708 -.5708)"
       y2="10.936"
       y1="10.936"
       x2="18.678"
       x1="7.8322"
       id="linearGradient2476">
      <stop
         offset="0"
         style="stop-color:#fff"
         id="stop2434" />
      <stop
         offset="1"
         style="stop-color:#fff;stop-opacity:0"
         id="stop2436" />
    </linearGradient>
  </defs>
  <sodipodi:namedview
     pagecolor="#ffffff"
     bordercolor="#666666"
     borderopacity="1"
     objecttolerance="10"
     gridtolerance="10"
     guidetolerance="10"
     inkscape:pageopacity="0"
     inkscape:pageshadow="2"
     inkscape:window-width="1920"
     inkscape:window-height="1016"
     id="namedview10"
     showgrid="false"
     inkscape:zoom="58.211536"
     inkscape:cx="7.9999999"
     inkscape:cy="5.2431626"
     inkscape:window-x="0"
     inkscape:window-y="27"
     inkscape:window-maximized="1"
     inkscape:current-layer="g6" />
  <g
     fill="#808080"
     id="g6"
     style="fill:#e95420;fill-opacity:1">
    <path
       style="color:#000000;font-style:normal;font-variant:normal;font-weight:normal;font-stretch:normal;font-size:medium;line-height:normal;font-family:sans-serif;font-variant-ligatures:normal;font-variant-position:normal;font-variant-caps:normal;font-variant-numeric:normal;font-variant-alternates:normal;font-feature-settings:normal;text-indent:0;text-align:start;text-decoration:none;text-decoration-line:none;text-decoration-style:solid;text-decoration-color:#000000;letter-spacing:normal;word-spacing:normal;text-transform:none;writing-mode:lr-tb;direction:ltr;text-orientation:mixed;dominant-baseline:auto;baseline-shift:baseline;text-anchor:start;white-space:normal;shape-padding:0;clip-rule:nonzero;display:inline;overflow:visible;visibility:visible;opacity:1;isolation:auto;mix-blend-mode:normal;color-interpolation:sRGB;color-interpolation-filters:linearRGB;solid-color:#000000;solid-opacity:1;vector-effect:none;fill:#e95420;fill-opacity:1;fill-rule:nonzero;stroke:none;stroke-width:1.00026143;stroke-linecap:butt;stroke-linejoin:miter;stroke-miterlimit:4;stroke-dasharray:none;stroke-dashoffset:0;stroke-opacity:1;color-rendering:auto;image-rendering:auto;shape-rendering:auto;text-rendering:auto;enable-background:accumulate"
       d="M 4.6875,0.58789062 V 1.375 2.75 h -0.4394531 -0.00586 -0.00391 C 3.0738248,2.7638843 2.1237011,2.6938221 1.2539062,3.1738281 h -0.00195 l -0.00391,0.00195 C 0.7803802,3.442615 0.424627,3.8684799 0.2421875,4.375 0.24186677,4.3758905 0.2405545,4.37606 0.2402345,4.37695 0.05511589,4.8709943 0,5.419348 0,6.0625 v 5.625 c 0,0.647069 0.05537046,1.195493 0.2421875,1.691406 0.19240622,0.51504 0.54712799,0.940941 1.0117187,1.197266 C 2.1240841,15.057548 3.0740896,14.98612 4.2382812,15 h 0.00391 7.5156248 0.0039 c 1.164453,-0.01389 2.114068,0.05778 2.984375,-0.421875 l 0.002,-0.002 0.0039,-0.002 C 15.219621,14.307386 15.575372,13.881521 15.757812,13.375 15.942145,12.880902 16,12.332722 16,11.6875 v -5.625 c 0,-0.6440325 -0.05549,-1.1914398 -0.240234,-1.6855469 -3.2e-4,-8.909e-4 -0.0016,-0.00106 -0.002,-0.00195 -0.18244,-0.5065208 -0.53819,-0.9323859 -1.005859,-1.1992188 l -0.0039,-0.00195 h -0.002 C 13.875915,2.6924532 12.925909,2.7638814 11.761719,2.75 H 11.757812 10.3125 V 3.6445312 L 9.7460938,3.2929688 C 9.0591036,2.8675085 8.3458626,2.4510377 7.6054688,2.0429688 6.8822394,1.6476326 6.1461861,1.2727886 5.4003906,0.921875 Z m 5.625,3.19921878 V 4.6875 H 11.75 c 0.582265,0.00701 1.062043,0.021447 1.417969,0.054687 0.357394,0.033377 0.595104,0.103783 0.640625,0.1289063 l 0.002,0.00195 c 0.104647,0.056872 0.06694,0.00116 0.132812,0.1777343 0.05507,0.1475933 0.119141,0.492297 0.119141,1.0117188 v 5.6249996 c 0,0.518425 -0.06414,0.861668 -0.119141,1.009766 -0.06705,0.177911 -0.02838,0.123245 -0.134765,0.18164 -0.04552,0.02512 -0.283231,0.09553 -0.640625,0.128906 -0.355926,0.03324 -0.835704,0.04768 -1.417969,0.05469 H 4.2558594 4.25 C 3.6677251,13.055491 3.1885718,13.04106 2.8320312,13.007812 2.4740195,12.974427 2.235471,12.903293 2.1914062,12.878906 H 2.1894531 2.1875 c -0.1019418,-0.05571 -0.065211,-0.0049 -0.1308594,-0.179687 v -0.002 C 2.001647,12.549197 1.9375,12.205932 1.9375,11.6875 v -5.625 c 0,-0.518431 0.064147,-0.8616952 0.1191406,-1.0097656 v -0.00195 C 2.1221574,4.8763388 2.0851285,4.9286719 2.1894531,4.8710938 h 0.00195 C 2.2356399,4.8466138 2.4741567,4.7755698 2.8320312,4.7421875 3.1884352,4.7089423 3.6672609,4.694509 4.25,4.6875 H 4.6894531 V 6.8417969 L 5.3984375,6.5175781 C 6.1222959,6.1861271 6.8574133,5.8154566 7.6054688,5.4082031 h 0.00195 C 8.3339052,5.0076312 9.048617,4.5856331 9.75,4.1425781 Z"
       id="path2"
       inkscape:connector-curvature="0"
       sodipodi:nodetypes="cccccccccccssccccccccccssccccccccccccccccscccssccccccscccccssccccscccccccc" />
    <path
       style="color:#000000;font-style:normal;font-variant:normal;font-weight:normal;font-stretch:normal;font-size:medium;line-height:normal;font-family:sans-serif;font-variant-ligatures:normal;font-variant-position:normal;font-variant-caps:normal;font-variant-numeric:normal;font-variant-alternates:normal;font-feature-settings:normal;text-indent:0;text-align:start;text-decoration:none;text-decoration-line:none;text-decoration-style:solid;text-decoration-color:#000000;letter-spacing:normal;word-spacing:normal;text-transform:none;writing-mode:lr-tb;direction:ltr;text-orientation:mixed;dominant-baseline:auto;baseline-shift:baseline;text-anchor:start;white-space:normal;shape-padding:0;clip-rule:nonzero;display:inline;overflow:visible;visibility:visible;opacity:0.3;isolation:auto;mix-blend-mode:normal;color-interpolation:sRGB;color-interpolation-filters:linearRGB;solid-color:#000000;solid-opacity:1;vector-effect:none;fill:#ffffff;fill-opacity:1;fill-rule:nonzero;stroke:none;stroke-width:1.00026143;stroke-linecap:butt;stroke-linejoin:miter;stroke-miterlimit:4;stroke-dasharray:none;stroke-dashoffset:0;stroke-opacity:1;color-rendering:auto;image-rendering:auto;shape-rendering:auto;text-rendering:auto;enable-background:accumulate"
       d="M 4.6875 0.58789062 L 4.6875 1.0878906 L 5.4003906 1.421875 C 6.1461861 1.7727886 6.8822393 2.1476325 7.6054688 2.5429688 C 8.3458625 2.9510376 9.0591035 3.3675084 9.7460938 3.7929688 L 10.027344 3.9667969 L 10.3125 3.7871094 L 10.3125 3.6445312 L 9.7460938 3.2929688 C 9.0591035 2.8675084 8.3458625 2.4510376 7.6054688 2.0429688 C 6.8822393 1.6476325 6.1461861 1.2727886 5.4003906 0.921875 L 4.6875 0.58789062 z M 4.2382812 2.75 C 3.0738292 2.7638843 2.1237012 2.6938221 1.2539062 3.1738281 L 1.2519531 3.1738281 L 1.2480469 3.1757812 C 0.78038087 3.4426181 0.424627 3.8684799 0.2421875 4.375 C 0.2421875 4.375 0.24023438 4.3769531 0.24023438 4.3769531 C 0.055115765 4.8709974 -3.7007434e-17 5.419348 0 6.0625 L 0 6.5625 C -3.7007434e-17 5.919348 0.055115765 5.3709974 0.24023438 4.8769531 C 0.24023438 4.8769531 0.2421875 4.875 0.2421875 4.875 C 0.424627 4.3684799 0.78038087 3.9426181 1.2480469 3.6757812 L 1.2519531 3.6738281 L 1.2539062 3.6738281 C 2.1237012 3.1938221 3.0738292 3.2638843 4.2382812 3.25 L 4.2421875 3.25 L 4.2480469 3.25 L 4.6875 3.25 L 4.6875 2.75 L 4.2480469 2.75 L 4.2421875 2.75 L 4.2382812 2.75 z M 10.3125 2.75 L 10.3125 3.25 L 11.757812 3.25 L 11.761719 3.25 C 12.925909 3.2638814 13.876002 3.192447 14.746094 3.6738281 L 14.748047 3.6738281 L 14.751953 3.6757812 C 15.219622 3.9426141 15.575373 4.3684792 15.757812 4.875 C 15.757812 4.875 15.759766 4.8769531 15.759766 4.8769531 C 15.94451 5.3710602 16 5.9184675 16 6.5625 L 16 6.0625 C 16 5.4184675 15.94451 4.8710602 15.759766 4.3769531 C 15.759766 4.3769531 15.757812 4.375 15.757812 4.375 C 15.575373 3.8684792 15.219622 3.4426142 14.751953 3.1757812 L 14.748047 3.1738281 L 14.746094 3.1738281 C 13.876002 2.692447 12.925909 2.7638814 11.761719 2.75 L 11.757812 2.75 L 10.3125 2.75 z M 1.9375 11.6875 L 1.9375 12.1875 C 1.9375 12.705932 2.001647 13.049244 2.0566406 13.197266 L 2.0566406 13.199219 C 2.122289 13.374006 2.0855582 13.323196 2.1875 13.378906 L 2.1894531 13.378906 L 2.1914062 13.378906 C 2.2354711 13.403293 2.4740195 13.474428 2.8320312 13.507812 C 3.1885719 13.541061 3.6677251 13.555493 4.25 13.5625 L 4.2558594 13.5625 L 11.75 13.5625 C 12.332265 13.55549 12.812043 13.541052 13.167969 13.507812 C 13.525363 13.474436 13.763074 13.404026 13.808594 13.378906 C 13.914979 13.320511 13.876309 13.375177 13.943359 13.197266 C 13.99836 13.049168 14.0625 12.705925 14.0625 12.1875 L 14.0625 11.6875 C 14.0625 12.205925 13.99836 12.549168 13.943359 12.697266 C 13.876309 12.875177 13.914979 12.820511 13.808594 12.878906 C 13.763074 12.904026 13.525363 12.974436 13.167969 13.007812 C 12.812043 13.041052 12.332265 13.05549 11.75 13.0625 L 4.2558594 13.0625 L 4.25 13.0625 C 3.6677251 13.055493 3.1885719 13.041061 2.8320312 13.007812 C 2.4740195 12.974428 2.2354711 12.903293 2.1914062 12.878906 L 2.1894531 12.878906 L 2.1875 12.878906 C 2.0855582 12.823196 2.122289 12.874006 2.0566406 12.699219 L 2.0566406 12.697266 C 2.001647 12.549244 1.9375 12.205932 1.9375 11.6875 z "
       id="path836" />
    <path
       style="color:#000000;font-style:normal;font-variant:normal;font-weight:normal;font-stretch:normal;font-size:medium;line-height:normal;font-family:sans-serif;font-variant-ligatures:normal;font-variant-position:normal;font-variant-caps:normal;font-variant-numeric:normal;font-variant-alternates:normal;font-feature-settings:normal;text-indent:0;text-align:start;text-decoration:none;text-decoration-line:none;text-decoration-style:solid;text-decoration-color:#000000;letter-spacing:normal;word-spacing:normal;text-transform:none;writing-mode:lr-tb;direction:ltr;text-orientation:mixed;dominant-baseline:auto;baseline-shift:baseline;text-anchor:start;white-space:normal;shape-padding:0;clip-rule:nonzero;display:inline;overflow:visible;visibility:visible;opacity:0.2;isolation:auto;mix-blend-mode:normal;color-interpolation:sRGB;color-interpolation-filters:linearRGB;solid-color:#000000;solid-opacity:1;vector-effect:none;fill:#000000;fill-opacity:1;fill-rule:nonzero;stroke:none;stroke-width:1.00026143;stroke-linecap:butt;stroke-linejoin:miter;stroke-miterlimit:4;stroke-dasharray:none;stroke-dashoffset:0;stroke-opacity:1;color-rendering:auto;image-rendering:auto;shape-rendering:auto;text-rendering:auto;enable-background:accumulate"
       d="M 10.027344 3.4667969 L 9.75 3.6425781 C 9.048617 4.0856331 8.3339083 4.5076312 7.6074219 4.9082031 L 7.6054688 4.9082031 C 6.8574132 5.3154566 6.1222959 5.6861271 5.3984375 6.0175781 L 4.6894531 6.3417969 L 4.6894531 6.8417969 L 5.3984375 6.5175781 C 6.1222959 6.1861271 6.8574132 5.8154566 7.6054688 5.4082031 L 7.6074219 5.4082031 C 8.3339083 5.0076312 9.048617 4.5856331 9.75 4.1425781 L 10.3125 3.7871094 L 10.3125 3.6445312 L 10.027344 3.4667969 z M 4.25 4.1875 C 3.6672609 4.194509 3.1884352 4.2089423 2.8320312 4.2421875 C 2.4741568 4.2755698 2.235643 4.3466138 2.1914062 4.3710938 L 2.1894531 4.3710938 C 2.0851285 4.4286719 2.1221574 4.3763356 2.0566406 4.5507812 L 2.0566406 4.5527344 C 2.001647 4.7008048 1.9375 5.044069 1.9375 5.5625 L 1.9375 6.0625 C 1.9375 5.544069 2.001647 5.2008048 2.0566406 5.0527344 L 2.0566406 5.0507812 C 2.1221574 4.8763356 2.0851285 4.9286719 2.1894531 4.8710938 L 2.1914062 4.8710938 C 2.235643 4.8466138 2.4741568 4.7755698 2.8320312 4.7421875 C 3.1884352 4.7089423 3.6672609 4.694509 4.25 4.6875 L 4.6894531 4.6875 L 4.6894531 4.1875 L 4.25 4.1875 z M 10.3125 4.1875 L 10.3125 4.6875 L 11.75 4.6875 C 12.332265 4.69451 12.812043 4.7089475 13.167969 4.7421875 C 13.525363 4.7755645 13.763073 4.8459705 13.808594 4.8710938 L 13.810547 4.8730469 C 13.915194 4.9299189 13.877487 4.874207 13.943359 5.0507812 C 13.998429 5.1983745 14.0625 5.5430782 14.0625 6.0625 L 14.0625 5.5625 C 14.0625 5.0430782 13.998429 4.6983745 13.943359 4.5507812 C 13.877487 4.374207 13.915194 4.4299189 13.810547 4.3730469 L 13.808594 4.3710938 C 13.763073 4.3459705 13.525363 4.2755645 13.167969 4.2421875 C 12.812043 4.2089475 12.332265 4.19451 11.75 4.1875 L 10.3125 4.1875 z M 0 11.1875 L 0 11.6875 C 0 12.334569 0.05537046 12.882993 0.2421875 13.378906 C 0.43459372 13.893946 0.78931554 14.319847 1.2539062 14.576172 C 2.1240842 15.057548 3.0740896 14.98612 4.2382812 15 L 4.2421875 15 L 11.757812 15 L 11.761719 15 C 12.926172 14.98611 13.875787 15.05778 14.746094 14.578125 L 14.748047 14.576172 L 14.751953 14.574219 C 15.219583 14.30748 15.575373 13.881521 15.757812 13.375 C 15.942146 12.880902 16 12.332722 16 11.6875 L 16 11.1875 C 16 11.832722 15.942146 12.380902 15.757812 12.875 C 15.575373 13.381521 15.219583 13.80748 14.751953 14.074219 L 14.748047 14.076172 L 14.746094 14.078125 C 13.875787 14.55778 12.926172 14.48611 11.761719 14.5 L 11.757812 14.5 L 4.2421875 14.5 L 4.2382812 14.5 C 3.0740896 14.48612 2.1240842 14.557548 1.2539062 14.076172 C 0.78931554 13.819847 0.43459372 13.393946 0.2421875 12.878906 C 0.05537046 12.382993 0 11.834569 0 11.1875 z "
       id="path841" />
  </g>
</svg>
